img/cardQueen.svg

<svg width="61" height="91" viewBox="0 0 61 91" fill="none" xmlns="http://www.w3.org/2000/svg">
<rect x="0.392578" y="0.0498047" width="60.057" height="90.0855" rx="4.61977" fill="white"/>
<path d="M5.01221 45.0925H54.6747" stroke="black" stroke-width="1.15494"/>
<mask id="mask0_1592_9465" style="mask-type:alpha" maskUnits="userSpaceOnUse" x="1" y="1" width="57" height="87">
<path d="M10.7042 2.3597H52.9421C55.1746 2.3597 56.9844 4.1695 56.9844 6.402L56.9844 67.6855C56.9844 68.6028 56.2408 69.3464 55.3236 69.3464C53.9989 69.3464 52.8534 70.2696 52.572 71.564L50.313 81.9556C50.1139 82.8714 50.5208 83.8123 51.3244 84.2944C52.2115 84.8267 51.8497 86.1879 50.8154 86.2094L5.83771 87.1464C3.51838 87.1948 1.63431 85.2854 1.71358 82.9669L3.74037 23.6847C3.79463 22.0974 5.09706 20.8388 6.68521 20.8388C8.95042 20.8388 10.7867 19.0025 10.7867 16.7373L10.7867 8.21691C10.7867 7.25616 10.3344 6.35148 9.5658 5.77503C8.10705 4.68097 8.88081 2.3597 10.7042 2.3597Z" fill="#C4C4C4" stroke="black" stroke-width="1.15494"/>
</mask>
<g mask="url(#mask0_1592_9465)">
<rect x="5.58968" y="5.24715" width="49.6625" height="79.691" rx="4.0423" stroke="black" stroke-width="1.15494"/>
</g>
<path d="M16.6963 18.5288H11.8157C13.7571 17.3912 14.1011 16.4695 14.256 14.6503L11.0023 16.2017C9.22266 15.012 9.12927 14.3338 11.0023 13.0989L14.256 14.6503L12.629 10.7719C13.6595 8.75786 14.6625 8.83273 15.8828 10.7719L14.256 14.6503L17.9165 13.0989C19.3434 14.3108 19.0275 14.9899 17.9165 16.2017L14.256 14.6503C14.5519 16.4698 14.9741 17.3705 16.6963 18.5288Z" fill="black"/>
<path d="M14.256 14.6503C14.1011 16.4695 13.7571 17.3912 11.8157 18.5288H16.6963C14.9741 17.3705 14.5519 16.4698 14.256 14.6503ZM14.256 14.6503L11.0023 16.2017C9.22266 15.012 9.12927 14.3338 11.0023 13.0989L14.256 14.6503ZM14.256 14.6503L15.8828 10.7719C14.6625 8.83273 13.6595 8.75786 12.629 10.7719L14.256 14.6503ZM14.256 14.6503L17.9165 13.0989C19.3434 14.3108 19.0275 14.9899 17.9165 16.2017L14.256 14.6503Z" stroke="black" stroke-width="1.15494"/>
<path d="M8.58246 17.8397C8.59223 17.8886 8.59956 17.935 8.60445 17.979C8.60934 18.023 8.61178 18.067 8.61178 18.1109C8.61178 18.3016 8.57268 18.4775 8.49448 18.6388C8.41628 18.8001 8.30632 18.9369 8.16458 19.0493C8.02284 19.1666 7.85178 19.257 7.6514 19.3206C7.4559 19.3841 7.23596 19.4159 6.99159 19.4159C6.73744 19.4159 6.48818 19.3719 6.24381 19.2839C5.99944 19.196 5.7795 19.0689 5.58401 18.9027C5.3934 18.7414 5.23944 18.5435 5.12214 18.3089C5.00484 18.0743 4.94619 17.8128 4.94619 17.5244C4.94619 17.4414 4.95353 17.3118 4.96819 17.1359C4.98774 16.9599 5.03661 16.7693 5.11481 16.5641C4.61629 16.4907 4.17887 16.2953 3.80253 15.9776C3.43109 15.655 3.12073 15.2444 2.87147 14.7459C2.62221 14.2425 2.43405 13.6682 2.30697 13.0231C2.18479 12.3731 2.12369 11.6815 2.1237 10.9484C2.1237 10.1713 2.19212 9.4406 2.32897 8.75636C2.47071 8.07211 2.68331 7.47584 2.96678 6.96755C3.25026 6.45925 3.60704 6.05848 4.03714 5.76524C4.46723 5.4671 4.97064 5.31803 5.54736 5.31803C6.14363 5.31803 6.65681 5.4671 7.08691 5.76524C7.52189 6.05848 7.87867 6.45925 8.15726 6.96755C8.43584 7.47584 8.64112 8.07211 8.77308 8.75636C8.90504 9.4406 8.97102 10.1713 8.97102 10.9484C8.97102 11.5886 8.9197 12.1971 8.81706 12.7738C8.71931 13.3506 8.57269 13.876 8.37719 14.35C8.18658 14.8241 7.94709 15.2347 7.65873 15.5817C7.37037 15.9238 7.03802 16.1804 6.66169 16.3515C6.50529 16.4639 6.37089 16.6032 6.25848 16.7693C6.14606 16.9404 6.08986 17.1677 6.08986 17.4511C6.08986 17.4707 6.08986 17.5025 6.08986 17.5464C6.09475 17.5904 6.10452 17.6417 6.11918 17.7004C6.13385 17.7639 6.15339 17.8324 6.17783 17.9057C6.20716 17.9839 6.24626 18.0621 6.29513 18.1403C6.30979 17.9692 6.35134 17.8079 6.41976 17.6564C6.48819 17.5098 6.57616 17.3803 6.68368 17.2679C6.79121 17.1603 6.91584 17.0748 7.05757 17.0113C7.19931 16.9526 7.35571 16.9233 7.52677 16.9233C7.77114 16.9135 7.98863 16.9819 8.17924 17.1286C8.36986 17.2801 8.50426 17.5171 8.58246 17.8397ZM7.05025 10.9484C7.05025 10.3423 7.02581 9.77295 6.97694 9.24021C6.92806 8.70259 6.84498 8.23584 6.72768 7.83996C6.61527 7.43919 6.46131 7.12395 6.26581 6.89424C6.0752 6.66453 5.83572 6.54967 5.54736 6.54967C5.26877 6.54967 5.03418 6.66453 4.84357 6.89424C4.65295 7.12395 4.499 7.43919 4.3817 7.83996C4.2644 8.23584 4.17887 8.70259 4.12511 9.24021C4.07135 9.77295 4.04446 10.3423 4.04446 10.9484C4.04446 11.5593 4.07134 12.1336 4.12511 12.6712C4.17887 13.2039 4.2644 13.6707 4.3817 14.0715C4.50388 14.4673 4.66028 14.7826 4.85089 15.0172C5.0415 15.2469 5.27366 15.3617 5.54735 15.3617C5.81616 15.3617 6.04587 15.2469 6.23648 15.0172C6.42709 14.7826 6.58349 14.4673 6.70568 14.0715C6.82787 13.6707 6.91584 13.2039 6.9696 12.6712C7.02337 12.1336 7.05025 11.5593 7.05025 10.9484Z" fill="black"/>
<path d="M52.2593 72.3456C52.2496 72.2967 52.2422 72.2503 52.2373 72.2063C52.2325 72.1623 52.23 72.1183 52.23 72.0744C52.23 71.8838 52.2691 71.7078 52.3473 71.5465C52.4255 71.3852 52.5355 71.2484 52.6772 71.136C52.819 71.0187 52.99 70.9283 53.1904 70.8647C53.3859 70.8012 53.6058 70.7694 53.8502 70.7694C54.1044 70.7694 54.3536 70.8134 54.598 70.9014C54.8424 70.9893 55.0623 71.1164 55.2578 71.2826C55.4484 71.4439 55.6024 71.6418 55.7197 71.8764C55.837 72.111 55.8956 72.3725 55.8956 72.6609C55.8956 72.7439 55.8883 72.8735 55.8736 73.0494C55.8541 73.2254 55.8052 73.416 55.727 73.6212C56.2255 73.6946 56.6629 73.8901 57.0393 74.2077C57.4107 74.5303 57.7211 74.9409 57.9703 75.4394C58.2196 75.9428 58.4078 76.5171 58.5348 77.1622C58.657 77.8122 58.7181 78.5038 58.7181 79.2369C58.7181 80.014 58.6497 80.7447 58.5128 81.4289C58.3711 82.1132 58.1585 82.7095 57.875 83.2178C57.5915 83.726 57.2348 84.1268 56.8047 84.4201C56.3746 84.7182 55.8712 84.8673 55.2944 84.8673C54.6982 84.8673 54.185 84.7182 53.7549 84.4201C53.3199 84.1268 52.9631 83.726 52.6845 83.2178C52.406 82.7095 52.2007 82.1132 52.0687 81.4289C51.9368 80.7447 51.8708 80.014 51.8708 79.2369C51.8708 78.5967 51.9221 77.9882 52.0247 77.4115C52.1225 76.8347 52.2691 76.3093 52.4646 75.8353C52.6552 75.3612 52.8947 74.9506 53.1831 74.6036C53.4714 74.2615 53.8038 74.0049 54.1801 73.8338C54.3365 73.7214 54.4709 73.5821 54.5833 73.416C54.6957 73.2449 54.7519 73.0176 54.7519 72.7342C54.7519 72.7146 54.7519 72.6828 54.7519 72.6389C54.7471 72.5949 54.7373 72.5436 54.7226 72.4849C54.708 72.4214 54.6884 72.3529 54.664 72.2796C54.6346 72.2014 54.5955 72.1232 54.5467 72.045C54.532 72.2161 54.4905 72.3774 54.422 72.5289C54.3536 72.6755 54.2656 72.805 54.1581 72.9174C54.0506 73.025 53.926 73.1105 53.7842 73.174C53.6425 73.2327 53.4861 73.262 53.315 73.262C53.0707 73.2718 52.8532 73.2034 52.6626 73.0567C52.4719 72.9052 52.3375 72.6682 52.2593 72.3456ZM53.7916 79.2369C53.7915 79.843 53.816 80.4124 53.8649 80.9451C53.9137 81.4827 53.9968 81.9495 54.1141 82.3453C54.2265 82.7461 54.3805 83.0614 54.576 83.2911C54.7666 83.5208 55.0061 83.6356 55.2944 83.6356C55.573 83.6356 55.8076 83.5208 55.9982 83.2911C56.1888 83.0614 56.3428 82.7461 56.4601 82.3453C56.5774 81.9495 56.6629 81.4827 56.7167 80.9451C56.7705 80.4124 56.7973 79.843 56.7973 79.2369C56.7973 78.626 56.7705 78.0517 56.7167 77.5141C56.6629 76.9814 56.5774 76.5146 56.4601 76.1138C56.3379 75.718 56.1815 75.4027 55.9909 75.1681C55.8003 74.9384 55.5681 74.8236 55.2944 74.8236C55.0256 74.8236 54.7959 74.9384 54.6053 75.1681C54.4147 75.4027 54.2583 75.718 54.1361 76.1138C54.0139 76.5146 53.926 76.9814 53.8722 77.5141C53.8184 78.0517 53.7916 78.626 53.7916 79.2369Z" fill="black"/>
<path d="M24.261 58.1013L12.7116 53.4344C26.8789 48.4564 37.0937 51.8788 40.4302 54.2122L32.7306 58.8791L31.1906 62.7681C31.7039 64.0645 32.4226 68.0572 31.1906 73.6575C29.9587 79.2577 26.0575 82.7319 24.261 83.769C22.2077 83.2504 18.4093 80.5022 19.6412 73.6575C21.1811 65.1015 21.9511 64.3237 24.261 62.7681L24.261 58.1013Z" fill="#FFDBB0"/>
<path d="M24.261 62.7681L24.261 58.1013L12.7116 53.4344C26.8789 48.4564 37.0937 51.8788 40.4302 54.2122L32.7306 58.8791L31.1906 62.7681C31.7039 64.0645 32.4226 68.0572 31.1906 73.6575C29.9587 79.2577 26.0575 82.7319 24.261 83.769M24.261 62.7681C21.9511 64.3237 21.1811 65.1015 19.6412 73.6575C18.4093 80.5022 22.2077 83.2504 24.261 83.769M24.261 62.7681C25.031 62.7681 26.7249 62.9237 27.3408 63.5459M24.261 83.769C21.4378 84.2875 22.7211 86.1024 28.1108 85.3246C36.0686 84.1762 38.8903 75.2131 37.3503 74.4353L38.5053 60.6844" stroke="black" stroke-width="1.15494" stroke-linejoin="bevel"/>
<g style="mix-blend-mode:multiply">
<path d="M24.6465 83.2056C22.1754 82.4671 20.1907 79.3546 20.0267 76.2759C19.8975 73.8492 20.7441 71.7481 22.3366 65.8814C22.9941 64.4995 24.2453 63.243 26.3789 64.149" stroke="#FFCB8D" stroke-opacity="0.46" stroke-width="1.15494"/>
</g>
<path d="M23.2026 73.9661C23.2026 72.9875 23.0294 70.8835 22.3364 70.2964M25.8013 67.3606C25.2238 67.116 23.7224 66.7735 22.3364 67.3606" stroke="black" stroke-width="0.577471"/>
<path d="M25.4163 75.5684C25.673 76.1024 26.8022 76.8501 29.2661 75.5684M22.3365 75.5684C22.0798 76.1025 21.2585 76.8502 20.0266 75.5684M20.7965 73.9662L21.5665 73.9662M26.9562 73.9662L27.7262 73.9662" stroke="black" stroke-width="1.15494"/>
<path d="M37.3509 73.5655C36.2054 66.796 38.2672 58.885 38.5059 56.0644L33.3086 58.9518L31.6233 62.0267L32.3392 68.95L29.4754 78.181C25.8015 84.8076 23.3531 84.938 24.0691 84.938C35.6185 84.938 36.8736 76.3861 37.3509 73.5655Z" fill="black" stroke="black" stroke-width="1.15494"/>
<path d="M37.5872 76.8024L41.3935 82.0507L37.6958 81.6096L37.2194 85.2523L34.0122 83.4605L33.5357 87.1032L30.3286 85.3114L28.2623 87.8254L26.2294 82.5093L37.5872 76.8024Z" fill="#FFDC22" stroke="black" stroke-width="1.15494" stroke-linejoin="round"/>
<path d="M12.7119 53.4344L11.172 45.0926L49.4776 45.0926C47.1503 52.1454 43.7029 56.0646 38.5056 60.6843L39.0831 55.4871L40.238 54.3321C37.2865 52.0012 27.6492 48.5584 12.7119 53.4344Z" fill="#B02929" stroke="black" stroke-width="1.15494" stroke-linejoin="bevel"/>
<path d="M36.5808 32.084L48.1302 36.7509C33.9629 41.7289 23.7481 38.3065 20.4116 35.9731L28.1112 31.3062L29.6512 27.4172C29.1379 26.1208 28.4192 22.1281 29.6512 16.5278C30.8831 10.9276 34.7843 7.45341 36.5808 6.41633C38.6341 6.93487 42.4325 9.68313 41.2006 16.5278C39.6607 25.0838 38.8907 25.8616 36.5808 27.4172L36.5808 32.084Z" fill="#FFDBB0"/>
<path d="M36.5808 27.4172L36.5808 32.084L48.1302 36.7509C33.9629 41.7289 23.7481 38.3065 20.4116 35.9731L28.1112 31.3062L29.6512 27.4172C29.1379 26.1208 28.4192 22.1281 29.6512 16.5278C30.8831 10.9276 34.7843 7.45341 36.5808 6.41633M36.5808 27.4172C38.8907 25.8616 39.6607 25.0838 41.2006 16.5278C42.4325 9.68313 38.6341 6.93487 36.5808 6.41633M36.5808 27.4172C35.8108 27.4172 34.1169 27.2616 33.501 26.6394M36.5808 6.41633C39.404 5.89779 38.1207 4.0829 32.731 4.86071C24.7732 6.00913 21.9515 14.9722 23.4915 15.75L22.3365 29.5009" stroke="black" stroke-width="1.15494" stroke-linejoin="bevel"/>
<g style="mix-blend-mode:multiply">
<path d="M36.1958 6.97949C38.6668 7.71793 40.6516 10.8304 40.8156 13.9091C40.9448 16.3358 40.0982 18.437 38.5057 24.3036C37.8482 25.6856 36.597 26.942 34.4634 26.036" stroke="#FFCB8D" stroke-opacity="0.46" stroke-width="1.15494"/>
</g>
<path d="M37.6396 16.219C37.6396 17.1976 37.8129 19.3015 38.5058 19.8887M35.041 22.8245C35.6185 23.0691 37.1199 23.4116 38.5058 22.8245" stroke="black" stroke-width="0.577471"/>
<path d="M35.426 14.6169C35.1693 14.0829 34.0401 13.3352 31.5762 14.6169M38.5058 14.6169C38.7625 14.0828 39.5838 13.3352 40.8157 14.6169M40.0457 16.2191H39.2758M33.8861 16.2191H33.1161" stroke="black" stroke-width="1.15494"/>
<path d="M23.4914 16.6196C24.6369 23.389 22.5751 31.3 22.3364 34.1206L27.5336 31.2333L29.219 28.1583L28.503 21.235L31.3669 12.004C35.0408 5.37744 37.4892 5.24707 36.7732 5.24707C25.2238 5.24707 23.9687 13.799 23.4914 16.6196Z" fill="black" stroke="black" stroke-width="1.15494"/>
<path d="M23.2551 13.3827L19.4488 8.13433L23.1464 8.57545L23.6229 4.93276L26.8301 6.72456L27.3066 3.08187L30.5137 4.87366L32.58 2.35961L34.6129 7.67574L23.2551 13.3827Z" fill="#FFDC22" stroke="black" stroke-width="1.15494" stroke-linejoin="round"/>
<path d="M48.1304 36.7507L49.6703 45.0925H11.3647C13.6919 38.0397 17.1394 34.1205 22.3367 29.5007L21.7592 34.698L20.6043 35.8529C23.5558 38.1838 33.1931 41.6267 48.1304 36.7507Z" fill="#B02929" stroke="black" stroke-width="1.15494" stroke-linejoin="bevel"/>
<path d="M49.0347 71.6562H44.1541C46.0955 72.7938 46.4395 73.7156 46.5944 75.5347L43.3407 73.9833C41.561 75.173 41.4677 75.8512 43.3407 77.0861L46.5944 75.5347L44.9674 79.4131C45.9979 81.4272 47.0009 81.3523 48.2211 79.4131L46.5944 75.5347L50.2549 77.0861C51.6818 75.8743 51.3659 75.1951 50.2549 73.9833L46.5944 75.5347C46.8903 73.7153 47.3125 72.8145 49.0347 71.6562Z" fill="black"/>
<path d="M46.5944 75.5347C46.4395 73.7156 46.0955 72.7938 44.1541 71.6562H49.0347C47.3125 72.8145 46.8903 73.7153 46.5944 75.5347ZM46.5944 75.5347L43.3407 73.9833C41.561 75.173 41.4677 75.8512 43.3407 77.0861L46.5944 75.5347ZM46.5944 75.5347L48.2211 79.4131C47.0009 81.3523 45.9979 81.4272 44.9674 79.4131L46.5944 75.5347ZM46.5944 75.5347L50.2549 77.0861C51.6818 75.8743 51.3659 75.1951 50.2549 73.9833L46.5944 75.5347Z" stroke="black" stroke-width="1.15494"/>
</svg>

<svg width="61" height="91" fill="none" xmlns="http://www.w3.org/2000/svg"><rect x=".39" y=".05" width="60.06" height="90.09" rx="4.62" fill="#fff"/><path d="M5.01 45.1h49.66" stroke="#000" stroke-width="1.15"/><mask id="a" style="mask-type:alpha" maskUnits="userSpaceOnUse" x="1" y="1" width="57" height="87"><path d="M10.7 2.36h42.24a4.04 4.04 0 0 1 4.04 4.04V67.7c0 .91-.74 1.66-1.66 1.66-1.32 0-2.47.92-2.75 2.21l-2.26 10.4c-.2.91.21 1.85 1.01 2.33.9.54.53 1.9-.5 1.92l-44.98.94a4.04 4.04 0 0 1-4.13-4.18l2.03-59.29a2.95 2.95 0 0 1 2.95-2.84 4.1 4.1 0 0 0 4.1-4.1V8.22c0-.96-.46-1.87-1.22-2.44a1.9 1.9 0 0 1 1.13-3.42Z" fill="#C4C4C4" stroke="#000" stroke-width="1.15"/></mask><g mask="url(#a)"><rect x="5.59" y="5.25" width="49.66" height="79.69" rx="4.04" stroke="#000" stroke-width="1.15"/></g><path d="M16.7 18.53h-4.88c1.94-1.14 2.28-2.06 2.44-3.88L11 16.2c-1.78-1.19-1.87-1.87 0-3.1l3.26 1.55-1.63-3.88c1.03-2.01 2.03-1.94 3.25 0l-1.62 3.88 3.66-1.55c1.42 1.21 1.1 1.89 0 3.1l-3.66-1.55c.3 1.82.71 2.72 2.44 3.88Z" fill="#000"/><path d="M14.26 14.65c-.16 1.82-.5 2.74-2.44 3.88h4.88c-1.73-1.16-2.15-2.06-2.44-3.88Zm0 0L11 16.2c-1.78-1.19-1.87-1.87 0-3.1l3.26 1.55Zm0 0 1.62-3.88c-1.22-1.94-2.22-2.01-3.25 0l1.63 3.88Zm0 0 3.66-1.55c1.42 1.21 1.1 1.89 0 3.1l-3.66-1.55Z" stroke="#000" stroke-width="1.15"/><path d="M8.58 17.84a1.63 1.63 0 0 1 .03.27 1.2 1.2 0 0 1-.45.94c-.14.12-.3.2-.5.27a2.2 2.2 0 0 1-2.07-.42c-.2-.16-.35-.36-.47-.6-.12-.23-.17-.49-.17-.78 0-.08 0-.2.02-.38s.07-.37.14-.58c-.5-.07-.93-.26-1.3-.58a3.94 3.94 0 0 1-.94-1.23 6.86 6.86 0 0 1-.56-1.73 11.22 11.22 0 0 1 .02-4.26c.14-.69.35-1.28.64-1.8.28-.5.64-.9 1.07-1.2.43-.3.93-.44 1.5-.44.6 0 1.12.15 1.55.45.43.29.79.69 1.07 1.2.28.5.48 1.1.61 1.79a11.57 11.57 0 0 1 .05 4.01c-.1.58-.25 1.1-.44 1.58-.2.47-.43.88-.72 1.23-.29.34-.62.6-1 .77-.15.11-.29.25-.4.42-.11.17-.17.4-.17.68v.1l.03.15.06.2.12.24a1.47 1.47 0 0 1 .38-.87c.11-.11.24-.2.38-.26s.3-.09.47-.09c.24 0 .46.06.65.2.19.16.32.4.4.72Zm-1.53-6.9c0-.6-.02-1.17-.07-1.7a7.3 7.3 0 0 0-.25-1.4c-.11-.4-.27-.72-.46-.95a.9.9 0 0 0-.72-.34.88.88 0 0 0-.7.34c-.2.23-.35.55-.47.95-.12.4-.2.86-.25 1.4a17.05 17.05 0 0 0 0 3.43c.05.53.13 1 .25 1.4.12.4.28.71.47.95.2.23.42.34.7.34.27 0 .5-.11.69-.34.19-.24.34-.55.47-.95.12-.4.2-.87.26-1.4.05-.54.08-1.11.08-1.72ZM52.26 72.35a1.67 1.67 0 0 1-.03-.28 1.2 1.2 0 0 1 .45-.93c.14-.12.31-.21.51-.28a2.2 2.2 0 0 1 2.07.42c.19.16.34.36.46.6.12.23.18.5.18.78l-.03.39c-.02.18-.06.37-.14.57.5.07.93.27 1.3.59.38.32.7.73.94 1.23.25.5.44 1.08.56 1.72a11.22 11.22 0 0 1-.02 4.27 6.26 6.26 0 0 1-.63 1.79c-.29.5-.65.9-1.08 1.2-.43.3-.93.45-1.5.45-.6 0-1.11-.15-1.55-.45-.43-.3-.79-.7-1.07-1.2-.27-.51-.48-1.1-.61-1.8a11.57 11.57 0 0 1-.05-4c.1-.59.25-1.11.44-1.58.2-.48.43-.89.72-1.24.3-.34.62-.6 1-.77a1.23 1.23 0 0 0 .57-1.1v-.1l-.03-.15a1.32 1.32 0 0 0-.18-.44 1.47 1.47 0 0 1-.38.88 1.21 1.21 0 0 1-.84.34.97.97 0 0 1-.66-.2c-.19-.15-.32-.4-.4-.71Zm1.53 6.89c0 .6.03 1.17.07 1.7.05.54.14 1.01.25 1.4.12.4.27.72.47.95.19.23.43.35.71.35.28 0 .52-.12.7-.35.2-.23.35-.54.47-.94.12-.4.2-.87.26-1.4a17.04 17.04 0 0 0 0-3.44c-.06-.53-.14-1-.26-1.4a2.8 2.8 0 0 0-.47-.94.87.87 0 0 0-1.39 0c-.19.23-.34.55-.46.94-.13.4-.21.87-.27 1.4-.05.54-.08 1.12-.08 1.73Z" fill="#000"/><path d="m24.26 58.1-11.55-4.67c14.17-4.97 24.38-1.55 27.72.78l-7.7 4.67-1.54 3.89c.51 1.3 1.23 5.29 0 10.89-1.23 5.6-5.13 9.07-6.93 10.1-2.05-.51-5.85-3.26-4.62-10.1 1.54-8.56 2.31-9.34 4.62-10.9V58.1Z" fill="#FFDBB0"/><path d="M24.26 62.77V58.1l-11.55-4.67c14.17-4.97 24.38-1.55 27.72.78l-7.7 4.67-1.54 3.89c.51 1.3 1.23 5.29 0 10.89-1.23 5.6-5.13 9.07-6.93 10.1m0-21c-2.3 1.56-3.08 2.34-4.62 10.9-1.23 6.84 2.57 9.59 4.62 10.1m0-21c.77 0 2.46.16 3.08.79m-3.08 20.22c-2.82.52-1.54 2.33 3.85 1.55 7.96-1.14 10.78-10.1 9.24-10.88l1.16-13.76" stroke="#000" stroke-width="1.15" stroke-linejoin="bevel"/><path d="M24.65 83.2c-2.47-.73-4.46-3.85-4.62-6.92-.13-2.43.71-4.53 2.3-10.4.66-1.38 1.92-2.64 4.05-1.73" stroke="#FFCB8D" stroke-opacity=".46" stroke-width="1.15" style="mix-blend-mode:multiply"/><path d="M23.2 73.97c0-.98-.17-3.09-.86-3.67m3.46-2.94a4.83 4.83 0 0 0-3.46 0" stroke="#000" stroke-width=".58"/><path d="M25.42 75.57c.25.53 1.38 1.28 3.85 0m-6.93 0c-.26.53-1.08 1.28-2.31 0m.77-1.6h.77m5.39 0h.77" stroke="#000" stroke-width="1.15"/><path d="M37.35 73.57c-1.14-6.77.92-14.68 1.16-17.5l-5.2 2.88-1.69 3.08.72 6.92-2.86 9.23c-3.68 6.63-6.13 6.76-5.41 6.76 11.55 0 12.8-8.55 13.28-11.37Z" fill="#000" stroke="#000" stroke-width="1.15"/><path d="m37.59 76.8 3.8 5.25-3.7-.44-.47 3.64-3.2-1.79-.48 3.64-3.21-1.79-2.07 2.52-2.03-5.32 11.36-5.7Z" fill="#FFDC22" stroke="#000" stroke-width="1.15" stroke-linejoin="round"/><path d="m12.71 53.43-1.54-8.34h38.3c-2.32 7.06-5.77 10.97-10.96 15.6l.57-5.2 1.16-1.16c-2.95-2.33-12.6-5.77-27.53-.9Z" fill="#B02929" stroke="#000" stroke-width="1.15" stroke-linejoin="bevel"/><path d="m36.58 32.08 11.55 4.67c-14.17 4.98-24.38 1.56-27.72-.78l7.7-4.66 1.54-3.9c-.51-1.29-1.23-5.28 0-10.88 1.23-5.6 5.13-9.08 6.93-10.11 2.05.51 5.85 3.26 4.62 10.1-1.54 8.56-2.3 9.34-4.62 10.9v4.66Z" fill="#FFDBB0"/><path d="M36.58 27.42v4.66l11.55 4.67c-14.17 4.98-24.38 1.56-27.72-.78l7.7-4.66 1.54-3.9c-.51-1.29-1.23-5.28 0-10.88 1.23-5.6 5.13-9.08 6.93-10.11m0 21c2.31-1.56 3.08-2.34 4.62-10.9 1.23-6.84-2.57-9.59-4.62-10.1m0 21c-.77 0-2.46-.16-3.08-.78m3.08-20.22c2.82-.52 1.54-2.34-3.85-1.56-7.96 1.15-10.78 10.11-9.24 10.89L22.34 29.5" stroke="#000" stroke-width="1.15" stroke-linejoin="bevel"/><path d="M36.2 6.98c2.47.74 4.45 3.85 4.62 6.93.12 2.43-.72 4.53-2.31 10.4-.66 1.38-1.91 2.63-4.05 1.73" stroke="#FFCB8D" stroke-opacity=".46" stroke-width="1.15" style="mix-blend-mode:multiply"/><path d="M37.64 16.22c0 .98.17 3.08.87 3.67m-3.47 2.93c.58.25 2.08.6 3.47 0" stroke="#000" stroke-width=".58"/><path d="M35.43 14.62c-.26-.54-1.39-1.28-3.85 0m6.93 0c.25-.54 1.07-1.28 2.3 0m-.76 1.6h-.77m-5.4 0h-.76" stroke="#000" stroke-width="1.15"/><path d="M23.5 16.62c1.14 6.77-.92 14.68-1.16 17.5l5.2-2.89 1.68-3.07-.72-6.93L31.37 12c3.67-6.62 6.12-6.75 5.4-6.75-11.55 0-12.8 8.55-13.28 11.37Z" fill="#000" stroke="#000" stroke-width="1.15"/><path d="m23.26 13.38-3.81-5.25 3.7.45.47-3.65 3.21 1.8.48-3.65 3.2 1.8 2.07-2.52 2.03 5.32-11.35 5.7Z" fill="#FFDC22" stroke="#000" stroke-width="1.15" stroke-linejoin="round"/><path d="m48.13 36.75 1.54 8.34h-38.3c2.32-7.05 5.77-10.97 10.97-15.59l-.58 5.2-1.16 1.15c2.96 2.33 12.6 5.78 27.53.9Z" fill="#B02929" stroke="#000" stroke-width="1.15" stroke-linejoin="bevel"/><path d="M49.03 71.66h-4.88c1.95 1.13 2.29 2.06 2.44 3.87l-3.25-1.55c-1.78 1.2-1.87 1.87 0 3.1l3.25-1.55-1.62 3.88c1.03 2.02 2.03 1.94 3.25 0l-1.63-3.88 3.66 1.56c1.43-1.22 1.12-1.9 0-3.1l-3.66 1.54c.3-1.81.72-2.72 2.44-3.87Z" fill="#000"/><path d="M46.6 75.53c-.16-1.81-.5-2.74-2.45-3.87h4.88c-1.72 1.15-2.14 2.06-2.44 3.87Zm0 0-3.26-1.55c-1.78 1.2-1.87 1.87 0 3.1l3.25-1.55Zm0 0 1.62 3.88c-1.22 1.94-2.22 2.02-3.25 0l1.62-3.88Zm0 0 3.65 1.56c1.43-1.22 1.12-1.9 0-3.1l-3.66 1.54Z" stroke="#000" stroke-width="1.15"/></svg>
